X:136
T:Haul Away Joe (c)
M:6/8
L:1/8
Q:1/4=100
K:C
c3 c2B|G3-G2E|F2F E2F|G2A B2G|
c3 c2B|G3-G2E|F2F G3 |C3- C3 ||
